X: 35417
T: Round The House
R: jig
M: 6/8
K: Dmajor
d2 e fed|edc A2 G|EGE A2 E|GEG FED|
dcd fed|edc A2 G|EBE A2 E|GEG FED:|
DEF G2 B|BAG A2 D|DEF AB=c|d=cA G2 D|
DEF G2 B|BAG A2 D|DEF A2 B|=cAF G3:|

